X:2134
T:William and Mary 
C:Charles Clague, Ballaclague 
C:Traditional
O:Isle of Man
Z:Clague collection
B:Kiaull Vannin #134 
M:2/4 
L:1/4
Q:60 
K:G 
D|G>A|B>c|d G|G A/B/|c A|F A|(G2|G):| 
B/c/|d B|B d|c A|A c|B G|G B|A/G/ F/E/|D/E/ F/G/| 
G>A|B B/G/|c/B/ c/e/|d d/c/|B A/G/|F/A/ d/c/|B G|!fermata!G|| 

